X:100
T:Texas Valsen
O:Danmark
R:Wals
Z:Bert Van Vreckem, 2004-05-15 <http://flanders.blackmill.net/music/>
M:3/4
L:1/8
K:G
dc|"G"B2 Bc AB|G2 GA B/A/G|"D"A2 AB c/B/A|"G"B2 d2 dc|\
"G"B2 Bc AB|G2 GA B/A/G|"D"A2 AB c/B/A|"G"G4:|
|:G2|"D"A3 B c/B/A|"G"B2 d2 dB/d/|"C"e2 d2 B2|"D"A3 B cB|\
"D"A3 B c/B/A|"G"B2 d2 GA|[1"G"B2 Bc AB|G2:|[2"G"B2 Bc AF|G2 D2|]

